;FLAVOR:Marlin
;TIME:37333
;Filament used: 16.0499m
;Layer height: 0.12
;MINX:84
;MINY:57.335
;MINZ:0.12
;MAXX:216
;MAXY:229.335
;MAXZ:19.92
;Generated with Creality Slicer 4.8.2-237
M140 S60
M105
M190 S60
M104 S200
M105
M109 S200
M82 ;absolute extrusion mode

G28 ;Home

G92 E0 ;Reset Extruder
G1 Z2.0 F3000 ;Move Z Axis up
G1 X10.1 Y20 Z0.28 F5000.0 ;Move to start position
G1 X10.1 Y200.0 Z0.28 F1500.0 E15 ;Draw the first line
G1 X10.4 Y200.0 Z0.28 F5000.0 ;Move to side a little
G1 X10.4 Y20 Z0.28 F1500.0 E30 ;Draw the second line
G92 E0 ;Reset Extruder
G1 Z2.0 F3000 ;Move Z Axis up

G92 E0
G92 E0
G1 F2400 E-0.8
;LAYER_COUNT:166
;LAYER:0
M107
G0 F7500 X89.389 Y68.172 Z0.12
;TYPE:SKIRT
G1 F2400 E0
G1 F1500 X89.584 Y67.918 E0.00639
G1 X89.828 Y67.612 E0.0142
G1 X90.201 Y67.154 E0.02599
G1 X90.676 Y66.585 E0.04078
G1 X91.068 Y66.139 E0.05263
G1 X91.216 Y65.98 E0.05696
G1 X91.655 Y65.527 E0.06955
G1 X92.023 Y65.158 E0.07995
G1 X92.64 Y64.559 E0.09711
G1 X93.073 Y64.161 E0.10885
G1 X93.43 Y63.854 E0.11825
G1 X93.809 Y63.542 E0.12804
G1 X94.264 Y63.175 E0.13971
G1 X94.819 Y62.74 E0.15378
G1 X95.269 Y62.406 E0.16496
G1 X95.418 Y62.301 E0.1686
G1 X95.68 Y62.122 E0.17493
G1 X96.058 Y61.872 E0.18398
G1 X96.493 Y61.591 E0.19431
G1 X97.15 Y61.177 E0.20981
G1 X97.66 Y60.874 E0.22165
G1 X97.861 Y60.762 E0.22624
G1 X98.117 Y60.624 E0.23204
G1 X98.423 Y60.464 E0.23893
G1 X99.04 Y60.152 E0.25273
G1 X99.676 Y59.841 E0.26686
G1 X100.232 Y59.588 E0.27905
G1 X100.623 Y59.426 E0.2875
G1 X101.054 Y59.256 E0.29674
G1 X101.611 Y59.043 E0.30864
G1 X102.249 Y58.809 E0.3222
G1 X102.73 Y58.645 E0.33235
G1 X102.933 Y58.581 E0.33659
G1 X103.29 Y58.475 E0.34403
G1 X103.672 Y58.369 E0.35194
G1 X104.298 Y58.203 E0.36486
G1 X104.98 Y58.031 E0.3789
G1 X105.522 Y57.909 E0.38998
G1 X105.738 Y57.866 E0.39438
G1 X106.072 Y57.805 E0.40115
G1 X106.469 Y57.739 E0.40919
G1 X107.107 Y57.639 E0.42207
G1 X107.787 Y57.542 E0.43578
G1 X108.385 Y57.474 E0.44779
G1 X108.603 Y57.455 E0.45216
G1 X108.952 Y57.43 E0.45914
G1 X109.88 Y57.38 E0.47769
G1 X110.69 Y57.349 E0.49386
G1 X110.972 Y57.342 E0.49949
G1 X111.586 Y57.335 E0.51175
G1 X188.293 Y57.335 E2.04252
G1 X189.242 Y57.347 E2.06146
G1 X189.544 Y57.355 E2.06749
G1 X190.19 Y57.383 E2.08039
G1 X190.737 Y57.412 E2.09132
G1 X191.385 Y57.455 E2.10428
G1 X192.021 Y57.516 E2.11703
G1 X192.511 Y57.58 E2.12689
G1 X192.883 Y57.636 E2.1344
G1 X193.52 Y57.738 E2.14727
G1 X194.209 Y57.858 E2.16123
G1 X194.766 Y57.97 E2.17257
G1 X194.981 Y58.019 E2.17697
G1 X195.291 Y58.094 E2.18333
G1 X195.671 Y58.193 E2.19117
G1 X196.335 Y58.372 E2.2049
G1 X196.957 Y58.549 E2.2178
G1 X197.499 Y58.719 E2.22914
G1 X197.948 Y58.876 E2.23863
G1 X198.356 Y59.029 E2.24732
G1 X198.956 Y59.261 E2.26016
G1 X199.601 Y59.52 E2.27403
G1 X200.143 Y59.755 E2.28582
G1 X200.345 Y59.849 E2.29027
G1 X200.801 Y60.071 E2.30039
G1 X201.489 Y60.422 E2.3158
G1 X202.104 Y60.746 E2.32967
G1 X202.593 Y61.02 E2.34086
G1 X202.785 Y61.134 E2.34532
G1 X203.12 Y61.341 E2.35318
G1 X203.748 Y61.745 E2.36808
G1 X203.92 Y61.858 E2.37218
G1 X204.52 Y62.26 E2.3866
G1 X204.997 Y62.598 E2.39826
G1 X205.161 Y62.721 E2.40235
G1 X205.402 Y62.907 E2.40843
G1 X205.728 Y63.167 E2.41675
G1 X206.22 Y63.567 E2.4294
G1 X206.746 Y64.007 E2.44309
G1 X207.175 Y64.385 E2.4545
G1 X207.372 Y64.568 E2.45987
G1 X207.577 Y64.763 E2.46551
G1 X208.177 Y65.359 E2.48239
G1 X208.776 Y65.975 E2.49954
G1 X209.158 Y66.389 E2.51078
G1 X209.297 Y66.548 E2.51499
G1 X209.504 Y66.793 E2.52139
G1 X209.774 Y67.12 E2.52986
G1 X210.14 Y67.575 E2.54151
G1 X210.576 Y68.129 E2.55558
G1 X210.941 Y68.621 E2.5678
G1 X211.222 Y69.027 E2.57766
G1 X211.435 Y69.349 E2.58536
G1 X211.771 Y69.869 E2.59772
G1 X212.147 Y70.465 E2.61178
G1 X212.469 Y71.008 E2.62438
G1 X212.701 Y71.434 E2.63406
G1 X212.861 Y71.741 E2.64097
G1 X213.17 Y72.347 E2.65454
G1 X213.49 Y72.999 E2.66903
G1 X213.755 Y73.583 E2.68183
G1 X213.917 Y73.974 E2.69028
G1 X214.065 Y74.352 E2.69838
G1 X214.277 Y74.909 E2.71027
G1 X214.524 Y75.576 E2.72447
G1 X214.748 Y76.246 E2.73856
G1 X214.858 Y76.618 E2.74631
G1 X214.976 Y77.045 E2.75515
G1 X215.141 Y77.665 E2.76795
G1 X215.305 Y78.316 E2.78135
G1 X215.433 Y78.889 E2.79306
G1 X215.48 Y79.129 E2.79794
G1 X215.545 Y79.496 E2.80538
G1 X215.694 Y80.43 E2.82426
G1 X215.79 Y81.098 E2.83772
G1 X215.86 Y81.699 E2.8498
G1 X215.879 Y81.915 E2.85413
G1 X215.9 Y82.195 E2.85973
G1 X215.922 Y82.557 E2.86697
G1 X215.954 Y83.189 E2.8796
G1 X215.986 Y84.024 E2.89627
G1 X215.993 Y84.306 E2.9019
G1 X216 Y84.92 E2.91415
G1 X215.999 Y201.788 E5.24638
G1 X215.987 Y202.613 E5.26285
G1 X215.979 Y202.895 E5.26848
G1 X215.956 Y203.46 E5.27976
G1 X215.934 Y203.892 E5.28839
G1 X215.873 Y204.786 E5.30628
G1 X215.818 Y205.366 E5.3179
G1 X215.794 Y205.561 E5.32182
G1 X215.757 Y205.832 E5.32728
G1 X215.7 Y206.213 E5.33497
G1 X215.595 Y206.872 E5.34829
G1 X215.483 Y207.521 E5.36143
G1 X215.351 Y208.167 E5.37459
G1 X215.249 Y208.591 E5.38329
G1 X215.152 Y208.97 E5.3911
G1 X214.971 Y209.642 E5.40499
G1 X214.788 Y210.286 E5.41835
G1 X214.61 Y210.855 E5.43024
G1 X214.544 Y211.047 E5.4343
G1 X214.422 Y211.384 E5.44145
G1 X214.132 Y212.146 E5.45772
G1 X213.826 Y212.913 E5.4742
G1 X213.592 Y213.456 E5.486
G1 X213.495 Y213.665 E5.4906
G1 X213.356 Y213.953 E5.49698
G1 X213.187 Y214.289 E5.50448
G1 X212.894 Y214.862 E5.51733
G1 X212.567 Y215.48 E5.53128
G1 X212.281 Y215.987 E5.5429
G1 X212.166 Y216.179 E5.54736
G1 X212.009 Y216.433 E5.55332
G1 X211.821 Y216.728 E5.5603
G1 X211.485 Y217.243 E5.57257
G1 X211.078 Y217.851 E5.58717
G1 X210.737 Y218.332 E5.59894
G1 X210.614 Y218.496 E5.60303
G1 X210.428 Y218.737 E5.60911
G1 X210.168 Y219.063 E5.61743
G1 X209.768 Y219.555 E5.63008
G1 X209.328 Y220.081 E5.64377
G1 X208.961 Y220.498 E5.65485
G1 X208.785 Y220.688 E5.66002
G1 X208.571 Y220.913 E5.66622
G1 X208 Y221.488 E5.68239
G1 X207.364 Y222.109 E5.70013
G1 X206.872 Y222.56 E5.71345
G1 X206.564 Y222.821 E5.7215
G1 X206.232 Y223.095 E5.73009
G1 X205.736 Y223.496 E5.74282
G1 X205.181 Y223.931 E5.75689
G1 X204.731 Y224.265 E5.76808
G1 X204.582 Y224.37 E5.77172
G1 X204.32 Y224.549 E5.77805
G1 X203.942 Y224.799 E5.78709
G1 X203.507 Y225.08 E5.79743
G1 X202.85 Y225.494 E5.81292
G1 X202.34 Y225.797 E5.82476
G1 X201.903 Y226.037 E5.83471
G1 X201.619 Y226.185 E5.8411
G1 X200.966 Y226.516 E5.85571
G1 X200.335 Y226.825 E5.86973
G1 X199.736 Y227.097 E5.88286
G1 X199.387 Y227.24 E5.89039
G1 X198.986 Y227.399 E5.899
G1 X198.425 Y227.614 E5.91099
G1 X197.741 Y227.866 E5.92553
G1 X197.094 Y228.081 E5.93914
G1 X196.697 Y228.199 E5.9474
G1 X196.333 Y228.3 E5.95494
G1 X195.705 Y228.467 E5.96791
G1 X195.005 Y228.644 E5.98232
G1 X194.38 Y228.783 E5.9951
G1 X194.013 Y228.851 E6.00255
G1 X193.493 Y228.939 E6.01307
G1 X192.894 Y229.032 E6.02517
G1 X192.214 Y229.129 E6.03887
G1 X191.617 Y229.197 E6.05087
G1 X191.175 Y229.233 E6.05971
G1 X190.725 Y229.26 E6.06871
G1 X190.086 Y229.292 E6.08148
G1 X189.314 Y229.321 E6.0969
G1 X189.036 Y229.328 E6.10245
G1 X188.411 Y229.335 E6.11492
G1 X111.557 Y229.334 E7.64862
G1 X110.749 Y229.323 E7.66475
G1 X110.453 Y229.315 E7.67066
G1 X109.804 Y229.288 E7.68362
G1 X109.279 Y229.259 E7.69411
G1 X108.582 Y229.212 E7.70806
G1 X107.952 Y229.151 E7.72069
G1 X107.506 Y229.093 E7.72966
G1 X107.135 Y229.038 E7.73715
G1 X106.476 Y228.932 E7.75047
G1 X105.788 Y228.812 E7.7644
G1 X105.236 Y228.702 E7.77564
G1 X105.012 Y228.651 E7.78022
G1 X104.638 Y228.559 E7.78791
G1 X103.928 Y228.371 E7.80256
G1 X103.049 Y228.122 E7.8208
G1 X102.493 Y227.948 E7.83242
G1 X102.254 Y227.866 E7.83746
G1 X101.989 Y227.771 E7.84308
G1 X101.675 Y227.653 E7.84978
G1 X101.12 Y227.439 E7.86165
G1 X100.418 Y227.159 E7.87673
G1 X99.784 Y226.883 E7.89053
G1 X99.413 Y226.705 E7.89874
G1 X99.034 Y226.517 E7.90718
G1 X98.492 Y226.239 E7.91934
G1 X97.829 Y225.888 E7.93431
G1 X97.317 Y225.598 E7.94605
G1 X97.172 Y225.511 E7.94943
G1 X96.88 Y225.33 E7.95628
G1 X96.252 Y224.926 E7.97118
G1 X96.077 Y224.811 E7.97536
G1 X95.476 Y224.408 E7.9898
G1 X95.011 Y224.078 E8.00118
G1 X94.848 Y223.956 E8.00525
G1 X94.598 Y223.764 E8.01154
G1 X94.269 Y223.502 E8.01993
G1 X93.781 Y223.105 E8.03248
G1 X93.256 Y222.666 E8.04614
G1 X92.834 Y222.294 E8.05737
G1 X92.656 Y222.129 E8.06221
G1 X92.416 Y221.9 E8.06883
G1 X92.219 Y221.706 E8.07435
G1 X91.683 Y221.169 E8.08949
G1 X91.233 Y220.706 E8.10237
G1 X90.784 Y220.215 E8.11565
G1 X90.495 Y219.877 E8.12453
G1 X90.264 Y219.598 E8.13175
G1 X89.833 Y219.062 E8.14548
G1 X89.403 Y218.513 E8.1594
G1 X89.071 Y218.066 E8.17051
G1 X88.966 Y217.917 E8.17415
G1 X88.786 Y217.653 E8.18052
G1 X88.497 Y217.216 E8.19098
G1 X88.256 Y216.842 E8.19986
G1 X87.842 Y216.185 E8.21535
G1 X87.535 Y215.667 E8.22737
G1 X87.426 Y215.471 E8.23185
G1 X87.258 Y215.159 E8.23892
G1 X86.924 Y214.51 E8.25348
G1 X86.83 Y214.323 E8.25766
G1 X86.51 Y213.671 E8.27215
G1 X86.252 Y213.104 E8.28458
G1 X86.088 Y212.709 E8.29312
G1 X85.936 Y212.322 E8.30142
G1 X85.708 Y211.725 E8.31417
G1 X85.474 Y211.092 E8.32764
G1 X85.266 Y210.471 E8.34071
G1 X85.142 Y210.055 E8.34937
G1 X85.021 Y209.616 E8.35846
G1 X84.849 Y208.968 E8.37184
G1 X84.692 Y208.343 E8.3847
G1 X84.562 Y207.757 E8.39668
G1 X84.511 Y207.494 E8.40202
G1 X84.448 Y207.138 E8.40924
G1 X84.331 Y206.407 E8.42401
G1 X84.206 Y205.539 E8.44151
G1 X84.136 Y204.922 E8.4539
G1 X84.102 Y204.486 E8.46263
G1 X84.076 Y204.067 E8.47101
G1 X84.044 Y203.435 E8.48364
G1 X84.014 Y202.654 E8.49923
G1 X84.007 Y202.362 E8.50506
G1 X84 Y201.726 E8.51775
G1 X84.001 Y84.89 E10.84934
G1 X84.012 Y84.093 E10.86525
G1 X84.02 Y83.791 E10.87128
G1 X84.051 Y83.079 E10.8855
G1 X84.078 Y82.581 E10.89545
G1 X84.123 Y81.918 E10.90871
G1 X84.182 Y81.304 E10.92102
G1 X84.215 Y81.039 E10.92635
G1 X84.264 Y80.693 E10.93333
G1 X84.406 Y79.795 E10.95147
G1 X84.519 Y79.14 E10.96473
G1 X84.658 Y78.465 E10.97849
G1 X84.751 Y78.08 E10.98639
G1 X84.852 Y77.687 E10.99449
G1 X85.029 Y77.029 E11.00809
G1 X85.207 Y76.399 E11.02115
G1 X85.41 Y75.759 E11.03455
G1 X85.539 Y75.395 E11.04226
G1 X85.699 Y74.966 E11.05139
G1 X85.896 Y74.455 E11.06232
G1 X86.176 Y73.753 E11.07741
G1 X86.455 Y73.113 E11.09134
G1 X86.639 Y72.73 E11.09982
G1 X86.803 Y72.401 E11.10715
G1 X87.095 Y71.83 E11.11995
G1 X87.424 Y71.205 E11.13405
G1 X87.762 Y70.61 E11.1477
G1 X87.961 Y70.285 E11.15531
G1 X88.18 Y69.939 E11.16348
G1 X88.567 Y69.347 E11.1776
G1 X88.931 Y68.806 E11.19061
G1 X89.247 Y68.362 E11.20148
G1 X89.389 Y68.172 E11.20622
G0 F7500 X89.709 Y68.411
G1 F1500 X89.897 Y68.167 E11.21236
G1 X90.139 Y67.864 E11.2201
G1 X90.508 Y67.41 E11.23178
G1 X90.983 Y66.841 E11.24657
G1 X91.361 Y66.412 E11.25798
G1 X91.689 Y66.064 E11.26752
G1 X91.939 Y65.81 E11.27463
G1 X92.436 Y65.313 E11.28866
G1 X92.918 Y64.846 E11.30205
G1 X93.336 Y64.462 E11.31338
G1 X93.49 Y64.328 E11.31746
G1 X93.686 Y64.162 E11.32258
G1 X94.06 Y63.853 E11.33226
G1 X94.511 Y63.49 E11.34382
G1 X95.066 Y63.055 E11.35789
G1 X95.499 Y62.733 E11.36866
G1 X95.648 Y62.628 E11.37229
G1 X95.901 Y62.455 E11.37841
G1 X96.276 Y62.208 E11.38737
G1 X96.706 Y61.929 E11.3976
G1 X97.363 Y61.515 E11.4131
G1 X97.854 Y61.223 E11.4245
G1 X98.055 Y61.111 E11.42909
G1 X98.302 Y60.978 E11.43469
G1 X98.604 Y60.821 E11.44148
G1 X99.066 Y60.586 E11.45182
G1 X99.852 Y60.201 E11.46929
G1 X100.387 Y59.957 E11.48103
G1 X100.771 Y59.798 E11.48932
G1 X101.197 Y59.629 E11.49846
G1 X101.749 Y59.418 E11.51026
G1 X102.387 Y59.184 E11.52382
G1 X102.85 Y59.027 E11.53358
G1 X103.053 Y58.963 E11.53782
G1 X103.397 Y58.86 E11.54499
G1 X103.775 Y58.756 E11.55281
G1 X104.396 Y58.591 E11.56564
G1 X105.078 Y58.419 E11.57967
G1 X105.6 Y58.301 E11.59035
G1 X105.816 Y58.258 E11.59475
G1 X106.138 Y58.199 E11.60128
G1 X106.437 Y58.149 E11.60733
G1 X107.163 Y58.035 E11.622
G1 X107.843 Y57.938 E11.6357
G1 X108.42 Y57.872 E11.64729
G1 X108.638 Y57.853 E11.65166
G1 X108.974 Y57.829 E11.65838
G1 X109.717 Y57.788 E11.67323
G1 X110.706 Y57.749 E11.69298
G1 X110.977 Y57.742 E11.69839
G1 X111.586 Y57.735 E11.71055
G1 X188.293 Y57.735 E13.24132
G1 X189.236 Y57.747 E13.26014
G1 X189.528 Y57.755 E13.26597
G1 X190.169 Y57.782 E13.27877
G1 X190.711 Y57.811 E13.2896
G1 X191.359 Y57.854 E13.30256
G1 X191.972 Y57.913 E13.31485
G1 X192.452 Y57.976 E13.32451
G1 X192.82 Y58.031 E13.33194
G1 X193.452 Y58.132 E13.34471
G1 X194.141 Y58.252 E13.35867
G1 X194.677 Y58.36 E13.36958
G1 X194.892 Y58.409 E13.37398
G1 X195.191 Y58.482 E13.38012
G1 X195.567 Y58.579 E13.38787
G1 X196.225 Y58.757 E13.40147
G1 X196.847 Y58.934 E13.41438
G1 X197.37 Y59.097 E13.42531
G1 X197.537 Y59.154 E13.42883
G1 X197.808 Y59.251 E13.43458
G1 X198.212 Y59.402 E13.44318
G1 X198.807 Y59.632 E13.45591
G1 X199.452 Y59.891 E13.46979
G1 X199.974 Y60.118 E13.48114
G1 X200.395 Y60.316 E13.49043
G1 X200.753 Y60.494 E13.49841
G1 X201.303 Y60.776 E13.51074
G1 X201.918 Y61.1 E13.52461
G1 X202.389 Y61.364 E13.53539
G1 X202.581 Y61.478 E13.53985
G1 X202.904 Y61.677 E13.54742
G1 X203.532 Y62.081 E13.56232
G1 X204.297 Y62.592 E13.58068
G1 X204.757 Y62.918 E13.59193
G1 X204.921 Y63.041 E13.59602
G1 X205.154 Y63.221 E13.6019
G1 X205.476 Y63.477 E13.6101
G1 X205.834 Y63.767 E13.6193
G1 X206.489 Y64.314 E13.63633
G1 X206.902 Y64.678 E13.64731
G1 X207.099 Y64.861 E13.65268
G1 X207.297 Y65.049 E13.65813
G1 X207.508 Y65.256 E13.66403
G1 X208.022 Y65.771 E13.67855
G1 X208.489 Y66.253 E13.69194
G1 X208.856 Y66.652 E13.70276
G1 X208.995 Y66.811 E13.70697
G1 X209.196 Y67.047 E13.71316
G1 X209.463 Y67.372 E13.72155
G1 X209.826 Y67.822 E13.73309
G1 X210.262 Y68.376 E13.74716
G1 X210.614 Y68.85 E13.75894
G1 X210.745 Y69.037 E13.7635
G1 X211.1 Y69.566 E13.77621
G1 X211.433 Y70.082 E13.78847
G1 X211.809 Y70.678 E13.80253
G1 X212.119 Y71.201 E13.81466
G1 X212.347 Y71.62 E13.82418
G1 X212.505 Y71.923 E13.831
G1 X212.811 Y72.524 E13.84446
G1 X213.131 Y73.176 E13.85896
G1 X213.387 Y73.738 E13.87128
G1 X213.544 Y74.121 E13.87954
G1 X213.691 Y74.495 E13.88756
G1 X213.902 Y75.048 E13.89937
G1 X214.149 Y75.715 E13.91357
G1 X214.365 Y76.36 E13.92714
G1 X214.472 Y76.726 E13.93475
G1 X214.59 Y77.149 E13.94351
G1 X214.753 Y77.763 E13.95619
G1 X214.917 Y78.414 E13.96959
G1 X215.04 Y78.966 E13.98087
G1 X215.087 Y79.206 E13.98575
G1 X215.15 Y79.559 E13.99291
G1 X215.298 Y80.487 E14.01166
G1 X215.394 Y81.155 E14.02513
G1 X215.461 Y81.734 E14.03676
G1 X215.501 Y82.22 E14.04649
G1 X215.522 Y82.578 E14.05365
G1 X215.554 Y83.204 E14.06616
G1 X215.586 Y84.039 E14.08283
G1 X215.593 Y84.311 E14.08826
G1 X215.6 Y84.92 E14.10042
G1 X215.599 Y201.782 E16.43253
G1 X215.587 Y202.607 E16.44899
G1 X215.579 Y202.879 E16.45442
G1 X215.556 Y203.44 E16.46563
G1 X215.522 Y204.07 E16.47822
G1 X215.474 Y204.759 E16.492
G1 X215.421 Y205.317 E16.50319
G1 X215.397 Y205.512 E16.50711
G1 X215.319 Y206.056 E16.51807
G1 X215.226 Y206.652 E16.53011
G1 X215.089 Y207.453 E16.54633
G1 X214.962 Y208.075 E16.559
G1 X214.862 Y208.492 E16.56756
G1 X214.765 Y208.867 E16.57529
G1 X214.586 Y209.532 E16.58903
G1 X214.403 Y210.176 E16.60239
G1 X214.231 Y210.725 E16.61387
G1 X214.165 Y210.917 E16.61792
G1 X214.048 Y211.241 E16.6248
G1 X213.692 Y212.173 E16.64471
G1 X213.455 Y212.765 E16.65743
G1 X213.229 Y213.287 E16.66878
G1 X213.132 Y213.496 E16.67338
G1 X212.998 Y213.774 E16.67954
G1 X212.831 Y214.108 E16.68699
G1 X212.54 Y214.675 E16.69971
G1 X212.213 Y215.293 E16.71366
G1 X211.938 Y215.782 E16.72486
G1 X211.823 Y215.974 E16.72932
G1 X211.672 Y216.218 E16.73505
G1 X211.486 Y216.51 E16.74196
G1 X211.153 Y217.021 E16.75413
G1 X210.746 Y217.629 E16.76873
G1 X210.417 Y218.092 E16.78007
G1 X210.294 Y218.256 E16.78416
G1 X210.114 Y218.489 E16.79003
G1 X209.858 Y218.811 E16.79824
G1 X209.568 Y219.169 E16.80744
G1 X209.021 Y219.824 E16.82447
G1 X208.667 Y220.226 E16.83516
G1 X208.491 Y220.416 E16.84033
G1 X208.285 Y220.633 E16.8463
G1 X208.073 Y220.849 E16.85234
G1 X207.603 Y221.318 E16.86559
G1 X207.085 Y221.822 E16.88001
G1 X206.611 Y222.257 E16.89285
G1 X206.309 Y222.513 E16.90075
G1 X205.98 Y222.785 E16.90927
G1 X205.489 Y223.181 E16.92186
G1 X204.934 Y223.616 E16.93593
G1 X204.501 Y223.938 E16.9467
G1 X204.352 Y224.043 E16.95033
G1 X204.099 Y224.216 E16.95645
G1 X203.724 Y224.463 E16.96541
G1 X203.294 Y224.742 E16.97564
